X:1
T:Title
%%score { ( 1 2 ) | ( 3 4 ) }
L:1/8
M:6/8
K:Eb
V:1 treble nm="Grand Piano"
V:2 treble 
V:3 bass 
V:4 bass 
V:1
 z3 z z[Q:1/4=100] z/ F/ | G2 G G2 G | [CEA]2 [CEA] [CEA]2 [Ec] | [EB]2 [EB] [Ge]2 [EG] | %4
 [EG]2 [DF] [DF]2 z/ F/ | G2 G G2 G | [CEA]2 [CEA] [CEA]2 [Ec] | B2 B e2 [CFA] | %8
 [B,EG]2 [A,DF] [G,E]3 |[M:1/8] E |[M:3/4] [B,G]2- [B,-EG-] [B,EG]2 [B,EG] | A6 | B2 B A2 G | %13
 [DF]4- [DF]E | [B,EG]2 [B,EG] [A,EA]2 [A,EA] |[M:7/8] [EB]2 [EB] [Ec]3 [Ec] | %16
[M:3/4] [B,EB]2 [B,EB] [B,Ee]2 [CFA] | [B,EG]2 [A,DF] [G,E]3 |] %18
V:2
 z3 z2 E | x6 | x6 | x6 | z3 z2 E | x6 | x6 | x6 | x6 |[M:1/8] G,/F/ |[M:3/4] E2 z2 z2 | %11
 [CE]2 [CE] [CE]2 [Ec] | x6 | z2 B, B,2 z/ F/ | x6 |[M:7/8] x7 |[M:3/4] x6 | x6 |] %18
V:3
 z3 z2 G,/A,/ | [E,B,E]2 [E,B,E] [E,B,E]2 [E,B,E] | A,,2 A,, A,,2 [A,,A,] | %3
 [E,G,]2 [E,G,] [E,B,]2 [E,B,] | [B,,B,]2 [B,,B,] [B,,B,]2 G,/A,/ | %5
 [E,B,E]2 [E,B,E] [E,B,E]2 [E,B,E] | A,,2 A,, A,,2 [A,,A,] | [E,G,E]2 [E,G,E] [G,,B,E]2 A,, | %8
 B,,2 C, E,3 |[M:1/8] z/ A,/ |[M:3/4] E,2 E, E,2 E, | A,,2 A,, A,,2 [A,,A,] | %12
 [E,G,E]2 [G,B,E] [F,B,D]2 [E,B,E] | z2 z2 z G, | E,2 D, C,2 C, | %15
[M:7/8] [B,,G,]2 [B,,G,] [A,,A,]3 [A,,A,] |[M:3/4] G,,2 G,, G,,2 A,, | B,,2 B,, E,3 |] %18
V:4
 z3 z2 E, | x6 | x6 | x6 | z3 z2 E, | x6 | x6 | x6 | x6 |[M:1/8] E, |[M:3/4] x6 | x6 | x6 | %13
 [B,,B,]2 B,, B,,2 z/ A,/ | x6 |[M:7/8] x7 |[M:3/4] x6 | x6 |] %18

